X: 3002
T: Hame Came Our Gudeman
P: Hame Came Our Gudeman
C:Old Scotch
R:Strathspey (8x32)
B:RSCDS 30-2
Z:Anselm Lingnau <anselm@strathspey.org>
M:C
L:1/8
K:D
d|"D"A>FAf "G"edBd|"D"A>F"A"AB "G"d>edB|\
  "D"AFAf "Em"g/f/e/d/ "A"d/c/B/A/|"D"A>F"A7"AB "D"d>edd|
  "D"A>FAf "G"edBd|"D"A>F"A"AB "G"d>edB|\
  "D"AFAf "Em"g/f/e/d/ "A"d/c/B/A/|"D"A>F"A7"AB "D"d>ed||
a|"D"f>edf "Em"e>d"A"Ba|"D"f>edf a>b"A7"ag|\
  "D7"f2a2 "G"b/a/g/f/ "Em"g/f/e/d/ "A7"d/c/B/A/|"D"A>F"A7"AB "D"d>eda|
  "D"f>edf "Em"e>d"A"Ba|"D"f>edf a>b"A7"ag|\
  "D7"f2a2 "G"b/a/g/f/ "Em"g/f/e/d/ "A7"d/c/B/A/|"D"A>F"A7"AB "D"d>ed|]
%%center Book30/3002-Hame_Came_Our_Gudeman-AL.abc

%%sep 1 1 500
%%sep 1 1 500

